assets/icons/24px/stroke/recycle-triangle-24px.svg

<svg width="24" height="24" viewBox="0 0 24 24" fill="none" xmlns="http://www.w3.org/2000/svg">
<path fill-rule="evenodd" clip-rule="evenodd" d="M9.30902 19.5L9.83491 19.5C10.3872 19.5 10.8349 19.0523 10.8349 18.5C10.8349 17.9477 10.3872 17.5 9.83491 17.5L9.3927 17.5C7.82624 17.5 6.76635 17.4973 6.01874 17.3863C5.28055 17.2767 5.13884 17.1009 5.08143 17.0019C5.02401 16.903 4.94164 16.6927 5.21271 15.9974C5.42943 15.4415 5.80132 14.7502 6.33066 13.8146L6.73361 14.8459C6.93459 15.3604 7.51453 15.6145 8.02895 15.4135C8.54337 15.2125 8.79746 14.6326 8.59648 14.1181L7.43142 11.1361C7.26122 10.7004 6.81179 10.441 6.34941 10.5114L3.18435 10.9934C2.63836 11.0766 2.26316 11.5866 2.34632 12.1326C2.42947 12.6786 2.9395 13.0538 3.48548 12.9706L4.6065 12.7999C4.06372 13.7578 3.6199 14.5769 3.34932 15.2709C3.00449 16.1554 2.83094 17.1086 3.35161 18.0058C3.87228 18.903 4.78596 19.2252 5.72499 19.3646C6.63725 19.5001 7.8476 19.5 9.30902 19.5Z" fill="white"/>
<path fill-rule="evenodd" clip-rule="evenodd" d="M7.39691 6.39681L7.13397 6.85224C6.85783 7.33053 7.0217 7.94212 7.49999 8.21827C7.97829 8.49441 8.58988 8.33053 8.86602 7.85224L9.08713 7.46927C9.87036 6.11268 10.4026 5.19612 10.8726 4.60418C11.3366 4.01969 11.5597 3.9849 11.6741 3.98464C11.7885 3.98439 12.0118 4.01819 12.4784 4.6006C12.8515 5.06623 13.2642 5.73397 13.8098 6.66018L12.7151 6.49346C12.1692 6.4103 11.6591 6.7855 11.576 7.33149C11.4928 7.87748 11.868 8.3875 12.414 8.47066L15.5791 8.95271C16.0415 9.02313 16.4909 8.76365 16.6611 8.32801L17.8261 5.34596C18.0271 4.83154 17.773 4.2516 17.2586 4.05062C16.7442 3.84964 16.1642 4.10374 15.9633 4.61815L15.5506 5.67434C14.9924 4.72532 14.505 3.93145 14.0393 3.3501C13.4457 2.60922 12.707 1.98234 11.6697 1.98465C10.6323 1.98696 9.89642 2.61712 9.30616 3.36063C8.73272 4.08294 8.12758 5.13115 7.39691 6.39681Z" fill="white"/>
<path fill-rule="evenodd" clip-rule="evenodd" d="M19.1912 11.9555L18.9282 11.5001C18.6521 11.0218 18.0405 10.8579 17.5622 11.134C17.0839 11.4102 16.92 12.0218 17.1962 12.5001L17.4173 12.883C18.2005 14.2396 18.7281 15.1588 19.0058 15.8618C19.28 16.5559 19.1985 16.7665 19.1416 16.8657C19.0846 16.9649 18.9437 17.1414 18.206 17.2543C17.6162 17.3446 16.8315 17.3682 15.7566 17.3775L16.4483 16.5129C16.7934 16.0816 16.7234 15.4523 16.2922 15.1073C15.8609 14.7623 15.2316 14.8322 14.8866 15.2635L12.8866 17.7635C12.5944 18.1287 12.5944 18.6477 12.8866 19.0129L14.8866 21.5129C15.2316 21.9442 15.8609 22.0141 16.2922 21.6691C16.7234 21.3241 16.7934 20.6948 16.4483 20.2635L15.74 19.378C16.841 19.3691 17.7722 19.344 18.5085 19.2313C19.4469 19.0877 20.3592 18.7614 20.8758 17.8619C21.3925 16.9624 21.2147 16.01 20.8659 15.127C20.5271 14.2693 19.9219 13.2211 19.1912 11.9555Z" fill="white"/>
</svg>

<svg width="24" height="24" fill="none" xmlns="http://www.w3.org/2000/svg"><path fill-rule="evenodd" clip-rule="evenodd" d="M9.309 19.5h.526a1 1 0 1 0 0-2h-.442c-1.567 0-2.627-.003-3.374-.114-.738-.11-.88-.285-.938-.384-.057-.099-.14-.31.132-1.005.216-.556.588-1.247 1.118-2.182l.403 1.03a1 1 0 1 0 1.862-.727l-1.165-2.982a1 1 0 0 0-1.082-.625l-3.165.482a1 1 0 0 0 .301 1.978l1.121-.171c-.542.958-.986 1.777-1.257 2.47-.345.885-.518 1.839.003 2.736.52.897 1.434 1.22 2.373 1.359.912.135 2.123.135 3.584.135zM7.397 6.397l-.263.455a1 1 0 0 0 1.732 1l.221-.383c.783-1.356 1.316-2.273 1.786-2.865.464-.584.687-.62.801-.62.115 0 .338.034.804.617.373.465.786 1.133 1.332 2.06l-1.095-.168a1 1 0 1 0-.301 1.978l3.165.482a1 1 0 0 0 1.082-.625l1.165-2.982a1 1 0 1 0-1.863-.728l-.412 1.056c-.559-.949-1.046-1.743-1.512-2.324-.593-.74-1.332-1.368-2.37-1.365-1.037.002-1.773.632-2.363 1.376-.573.722-1.178 1.77-1.91 3.036zm11.794 5.559l-.263-.456a1 1 0 1 0-1.732 1l.221.383c.784 1.357 1.311 2.276 1.589 2.979.274.694.192.905.136 1.004-.057.099-.198.275-.936.388-.59.09-1.375.114-2.45.123l.692-.864a1 1 0 1 0-1.561-1.25l-2 2.5a1 1 0 0 0 0 1.25l2 2.5a1 1 0 1 0 1.561-1.25l-.708-.885c1.101-.009 2.032-.034 2.769-.147.938-.143 1.85-.47 2.367-1.37.516-.899.339-1.851-.01-2.734-.339-.858-.944-1.906-1.675-3.171z" fill="#fff"/></svg>
